packages/sources/assets/src/assets/flag-to.svg

<svg width="28" height="20" viewBox="0 0 28 20" fill="none" xmlns="http://www.w3.org/2000/svg">
<rect x="0.25" y="0.25" width="27.5" height="19.5" rx="1.75" fill="white" stroke="#F5F5F5" stroke-width="0.5"/>
<mask id="mask0_503_2800" style="mask-type:alpha" maskUnits="userSpaceOnUse" x="0" y="0" width="28" height="20">
<rect x="0.25" y="0.25" width="27.5" height="19.5" rx="1.75" fill="white" stroke="white" stroke-width="0.5"/>
</mask>
<g mask="url(#mask0_503_2800)">
<path fill-rule="evenodd" clip-rule="evenodd" d="M28 0H16V10.6667H0V20H28V0Z" fill="#E20F1B"/>
<path fill-rule="evenodd" clip-rule="evenodd" d="M7 1.33334C6.81591 1.33334 6.66667 1.48258 6.66667 1.66668V4.00001H4.33333C4.14924 4.00001 4 4.14925 4 4.33334V6.33334C4 6.51744 4.14924 6.66668 4.33333 6.66668H6.66667V9.00001C6.66667 9.1841 6.81591 9.33334 7 9.33334H9C9.18409 9.33334 9.33333 9.1841 9.33333 9.00001V6.66668H11.6667C11.8508 6.66668 12 6.51744 12 6.33334V4.33334C12 4.14925 11.8508 4.00001 11.6667 4.00001H9.33333V1.66668C9.33333 1.48258 9.18409 1.33334 9 1.33334H7Z" fill="url(#paint0_linear_503_2800)"/>
</g>
<defs>
<linearGradient id="paint0_linear_503_2800" x1="4" y1="1.33334" x2="4" y2="9.33334" gradientUnits="userSpaceOnUse">
<stop stop-color="#DF101B"/>
<stop offset="1" stop-color="#C00711"/>
</linearGradient>
</defs>
</svg>

<svg width="28" height="20" fill="none" xmlns="http://www.w3.org/2000/svg"><rect x=".25" y=".25" width="27.5" height="19.5" rx="1.75" fill="#fff" stroke="#F5F5F5" stroke-width=".5"/><mask id="a" style="mask-type:alpha" maskUnits="userSpaceOnUse" x="0" y="0" width="28" height="20"><rect x=".25" y=".25" width="27.5" height="19.5" rx="1.75" fill="#fff" stroke="#fff" stroke-width=".5"/></mask><g mask="url(#a)" fill-rule="evenodd" clip-rule="evenodd"><path d="M28 0H16v10.667H0V20h28V0Z" fill="#E20F1B"/><path d="M7 1.333a.333.333 0 0 0-.333.334V4H4.333A.333.333 0 0 0 4 4.333v2c0 .184.15.334.333.334h2.334V9c0 .184.149.333.333.333h2A.333.333 0 0 0 9.333 9V6.667h2.334c.184 0 .333-.15.333-.334v-2A.333.333 0 0 0 11.667 4H9.333V1.667A.333.333 0 0 0 9 1.333H7Z" fill="url(#b)"/></g><defs><linearGradient id="b" x1="4" y1="1.333" x2="4" y2="9.333" gradientUnits="userSpaceOnUse"><stop stop-color="#DF101B"/><stop offset="1" stop-color="#C00711"/></linearGradient></defs></svg>
